!!!!SEGMENT: 058-1a-MEIj-002.krn
!!!COM: Chopin, Fryderyk
!!!OTL: SONATE
!!!OPS: Op. 58
!!!OMV: 2
!!!PPR: J. Meissonnier
!!!PPP: Paris
!!!OMD: Molto vivace
!!!NIFC-rismID: 1001027079
!!!NIFC-shelfmark: PL-Wbfc 4058/n
**kern	**kern	**fing	**dynam
*part1	*part1	*	*part1
*staff2	*staff1	*	*
*	*I" SCHERZO	*	*
*clefF4	*clefG2	*	*
*k[b-e-a-]	*k[b-e-a-]	*	*
*E-:	*E-:	*	*
*M3/4	*M3/4	*	*
!	!LO:TX:i:t=Leggiero	!	!
4rAA	(>8G<L	.	.
.	8A-<J	.	.
=1	=1	=1	=1
4rAA	8An<L	.	.
.	8c<	.	.
4rAA	8B-<	.	.
.	8g	.	.
(>4A-X [>4BB-	8d	.	.
.	8fJ	.	.
=2	=2	=2	=2
*^	*	*	*
*ped	*	*	*	*
4G\)	2BB-\]	8e-L	.	.
.	.	8G<	.	.
4EE-\	.	8B-<	.	.
.	.	8e-	.	.
*Xped	*	*	*	*
4rC	4rcyy	8g	.	.
.	.	8a-J	.	.
*v	*v	*	*	*
=3	=3	=3	=3
4r	8anL>	.	.
.	8cc	.	.
4r	8b-	.	.
.	8gg	.	.
(>4a-X> [>4B-	8dd	.	.
.	8ffJ	.	.
=4	=4	=4	=4
*^	*	*	*
*ped	*	*	*	*
4g>\	2B-])	8ee-L>	.	.
.	.	8g	.	.
4E-\	.	8b-	.	.
.	.	8ee-	.	.
*Xped	*	*	*	*
4r	4reyy	8gg	.	.
.	.	8aa-J	.	.
*v	*v	*	*	*
=5	=5	=5	=5
4r	8aanL	.	.
.	8ccc	.	.
4r	8bb-	.	.
.	8ggg	.	.
*clefG2	*	*	*
*ped	*	*	*
(4gg 4b-	8ddd	.	.
.	8fffJ	.	.
=6	=6	=6	=6
4ee- 4g)	8eee-L	.	.
.	8bb-	.	.
4r	8gg	.	.
.	8ee-	.	.
*Xped	*	*	*
4r	8b-	.	.
.	8gJ	.	.
*clefF4	*	*	*
=7	=7	=7	=7
!	!	!	!LO:HP:b=2
(2.C\	8e-L	.	>
.	8G<	.	.
.	8c	.	.
.	8e-	.	.
.	8g	.	.
.	8fJ	.	]
!!LO:LB:g=original
=8	=8	=8	=8
2FF\	8e-L	.	.
.	8A-<	.	.
.	8d	.	.
.	8c	.	.
8GG\)	8Bn	.	.
8rGG	8G<J	.	.
=9	=9	=9	=9
4rAA	8A-<L	.	.
.	8An<	.	.
4rAA	8B-<	.	.
.	8g	.	.
(>4A-X [>4BB-	8d	.	.
.	8fJ	.	.
=10	=10	=10	=10
*^	*	*	*
*ped	*	*	*	*
4G\	2BB-])	8e-L	.	.
.	.	8G<	.	.
4EE-\	.	8B-<	.	.
.	.	8e-	.	.
*Xped	*	*	*	*
4r	4reyy	8g	.	.
.	.	8a-J	.	.
*v	*v	*	*	*
=11	=11	=11	=11
4r	8anL>	.	.
.	8cc	.	.
4r	8b-	.	.
.	8gg	.	.
(>4a-X> [>4B-	8dd	.	.
.	8ffJ	.	.
=12	=12	=12	=12
*^	*	*	*
*ped	*	*	*	*
4g>\	2B-])	8ee-L>	.	.
.	.	8g	.	.
4E-\	.	8b-	.	.
.	.	8ee-	.	.
*Xped	*	*	*	*
4r	4reyy	8gg	.	.
.	.	8aa-J	.	.
*v	*v	*	*	*
=13	=13	=13	=13
4r	8aanL	.	.
.	8ccc	.	.
4r	8bb-	.	.
.	8bb-	.	.
*clefG2	*	*	*
*ped	*	*	*
(4gg 4b-	8cccc	.	.
.	8bbb-J	.	.
=14	=14	=14	=14
4ee- 4g)	8gggL	.	.
.	8eee-	.	.
4r	8ccc	.	.
.	8bb-	.	.
*Xped	*	*	*
4r	8gg	.	.
.	8ee-J	.	.
=15	=15	=15	=15
4r	8ccL	.	.
.	8b-	.	.
4r	8g	.	.
.	8c	.	>
*clefF4	*	*	*
([4A- 4BB-	8d	.	.
.	8gJ	.	.
=16	=16	=16	=16
*^	*	*	*
4A-\]	2E-	8fL	.	.
.	.	8e-	.	]
4G\)	.	8An<	.	.
.	.	8B-<	.	.
4rC	4rcyy	8Bn<	.	.
.	.	8c<J	.	.
*v	*v	*	*	*
!!LO:LB:g=original
=17||	=17||	=17||	=17||
4r	8c#XL	.	.
.	8e-	.	.
4r	8d	.	.
.	8b-	.	.
(>4cn [>4D	8f#X	.	.
.	8anJ	.	.
=18	=18	=18	=18
*^	*	*	*
*ped	*	*	*	*
4B-\	2D]	8gL	.	.
.	.	8d	.	.
4GG\)	.	8B-	.	.
.	.	8d	.	.
*Xped	*	*	*	*
4r	4rgyy	8g	.	.
.	.	8b-J	.	.
*v	*v	*	*	*
=19	=19	=19	=19
4r	8cc#XL>	.	.
.	8ee-	.	.
4r	8dd	.	.
.	8bb-	.	.
(4ccn> [>4d>	8ff#X	.	.
.	8aanJ	.	.
=20	=20	=20	=20
*^	*	*	*
*ped	*	*	*	*
4b->\	2d>]	8ggL>	.	.
.	.	8dd	.	.
4G\)	.	8b-	.	.
.	.	8dd	.	.
*Xped	*	*	*	*
4r	4rgyy	8gg	.	.
.	.	8bb-J	.	.
*v	*v	*	*	*
=21	=21	=21	=21
*	*8va	*	*
4r	8ccc#XL	.	.
.	8ddd	.	.
4r	8dddd	.	.
.	8aaan	.	.
*clefG2	*	*	*
*ped	*	*	*
(4bb- 4dd	8ccccn	.	.
.	8bbb-J	.	.
=22	=22	=22	=22
4gg 4b-)	8gggL	.	.
.	8ddd	.	.
4r	8bb-	.	.
*	*X8va	*	*
!	!LO:TX:a:t=loco	!	!
.	8gg	.	.
*Xped	*	*	*
4r	8dd	.	.
.	8anJ	.	.
=23	=23	=23	=23
4r	8ccL	.	.
.	8b-	.	.
4r	8g	.	.
.	8d	.	.
*clefF4	*	*	*
(4B- [>4C	8en	.	.
.	8a-J	.	.
=24	=24	=24	=24
*^	*	*	*
*ped	*	*	*	*
4A-\	2C]	8gL	.	.
.	.	8f	.	.
4FF\)	.	8c	.	.
.	.	8G<	.	.
*Xped	*	*	*	*
4rGG	4ryy	8A-<	.	.
.	.	8B-<J	.	.
*v	*v	*	*	*
!!LO:LB:g=original
=25	=25	=25	=25
4r	8BnL	.	.
.	8d-X	.	.
4r	8c	.	.
.	8a-	.	.
(4B-X [>4C	8en	.	.
.	8gJ	.	.
=26	=26	=26	=26
*^	*	*	*
*ped	*	*	*	*
4A-\	2C]	8fL	.	.
.	.	8c	.	.
4FF\)	.	8A-<	.	.
.	.	8c	.	.
*Xped	*	*	*	*
4r	4r	8f	.	.
.	.	8a-J	.	.
*v	*v	*	*	*
=27	=27	=27	=27
4r	8bnL>	.	.
.	8dd-X	.	.
4r	8cc	.	.
.	8aa-	.	.
(4b-X> [>4c>	8een	.	.
.	8ggJ	.	.
=28	=28	=28	=28
*^	*	*	*
*ped	*	*	*	*
4a->\	2c>]	8ffL>	.	.
.	.	8cc	.	.
4F\)	.	8a-	.	.
.	.	8cc	.	.
*Xped	*	*	*	*
4r	4rbyy	8ff	.	.
.	.	8aa-J	.	.
*v	*v	*	*	*
=29	=29	=29	=29
*	*8va	*	*
2.rF	8bbnL	.	.
.	8ccc	.	.
.	8cccc	.	.
.	8ggg	.	.
.	8bbb-X	.	.
.	8aaa-J	.	.
*	*X8va	*	*
*clefG2	*	*	*
=30	=30	=30	=30
*ped	*	*	*
!	!LO:TX:a:t=loco	!	!
2aa- 2dd 2cc	8fffL	.	.
.	8ddd	.	.
.	8ccc	5	.
.	8aa-	.	.
4r	8ff	.	.
.	8ddJ	.	.
=31	=31	=31	=31
2.rdd	8ccL	.	.
.	8a-	.	.
.	8f	.	.
.	8d	.	.
.	8a-	.	.
*Xped	*	*	*
.	8cJ	.	.
*clefF4	*	*	*
=32	=32	=32	=32
2D\ 2GG\	8BnL	.	.
.	8G<	.	.
.	8A-<	.	.
.	8G<	.	.
4rBB	8g	.	.
.	8G<J	.	.
!!LO:LB:g=original
=33	=33	=33	=33
4rBB	8A-<L	.	.
.	8An<	.	.
4rBB	8B-<	.	.
.	8g	.	.
(4A-X [>4BB-	8d	.	.
.	8fJ	.	.
=34	=34	=34	=34
*^	*	*	*
*ped	*	*	*	*
4G\	2BB-]	8e-L	.	.
.	.	8G<	.	.
4EE-\)	.	8B-<	.	.
.	.	8e-	.	.
*Xped	*	*	*	*
4r	4rAyy	8g	.	.
.	.	8a-J	.	.
*v	*v	*	*	*
=35	=35	=35	=35
4r	8anL>	.	.
.	8cc	.	.
4r	8b-	.	.
.	8gg	.	.
(4a-X> [>4B->	8dd	.	.
.	8ffJ	.	.
=36	=36	=36	=36
*^	*	*	*
*ped	*	*	*	*
4g>\	2B->]	8ee-L>	.	.
.	.	8g	.	.
4E-\)	.	8b-	.	.
.	.	8ee-	.	.
*Xped	*	*	*	*
4rC	4rgyy	8gg	.	.
.	.	8aa-J	.	.
*v	*v	*	*	*
=37	=37	=37	=37
4r	8aanL	.	.
.	8ccc	.	.
4r	8bb-	.	.
.	8ggg	.	.
*clefG2	*	*	*
*ped	*	*	*
(4gg 4b-	8ddd	.	.
.	8fffJ	.	.
=38	=38	=38	=38
4ee- 4g)	8eee-L	.	.
.	8bb-	.	.
4r	8gg	.	.
.	8ee-	.	.
*Xped	*	*	*
4r	8b-	.	.
.	8gJ	.	.
*clefF4	*	*	*
=39	=39	=39	=39
(2.C\	8e-L	.	.
!	!	!	!LO:HP:b=2
.	.	.	>
.	8G<	.	.
.	8c	.	.
.	8e-	.	.
.	8g	.	.
.	8fJ	.	]]
=40	=40	=40	=40
2FF\	8e-L	.	.
.	8A-<	.	.
.	8d	.	.
.	8c	.	.
8GG\	8Bn	.	.
8rFF)	8G<J	.	.
!!LO:LB:g=original
=41	=41	=41	=41
4rBB	8A-<L	.	.
.	8An<	.	.
4rBB	8B-<	.	.
.	8g	.	.
(4A-X [>4BB-	8d	.	.
.	8fJ	.	.
=42	=42	=42	=42
*^	*	*	*
*ped	*	*	*	*
4G\	2BB-]	8e-L	.	.
.	.	8G<	.	.
4EE-\)	.	8B-<	.	.
.	.	8e-	.	.
*Xped	*	*	*	*
4r	4rAyy	8g	.	.
.	.	8a-J	.	.
*v	*v	*	*	*
=43	=43	=43	=43
4r	8anL>	.	.
.	8cc	.	.
4r	8b-	.	.
.	8gg	.	.
(4a-X> [>4B->	8dd	.	.
.	8ffJ	.	.
=44	=44	=44	=44
*^	*	*	*
*ped	*	*	*	*
4g>\	2B->]	8ee-L>	.	.
.	.	8g	.	.
4E-\)	.	8b-	.	.
.	.	8ee-	.	.
*Xped	*	*	*	*
4rC	4rgyy	8gg	.	.
.	.	8aa-J	.	.
*v	*v	*	*	*
=45	=45	=45	=45
4r	8aanL	.	.
.	8ccc	.	.
4r	8bb-	.	.
.	8bb-	.	.
*clefG2	*	*	*
*ped	*	*	*
*	*8va	*	*
(4gg 4b-	8cccc	.	.
.	8bbb-J	.	.
=46	=46	=46	=46
4ee- 4g)	8gggL	.	.
.	8eee-	.	.
4r	8ccc	.	.
*	*X8va	*	*
!	!LO:TX:a:t=loco	!	!
.	8bb-	.	.
*Xped	*	*	*
4r	8gg	.	.
.	8ee-J	.	.
=47	=47	=47	=47
4r	8ccL	.	.
.	8an	.	.
4r	8cc	.	.
.	8b-	.	.
*clefF4	*	*	*
*ped	*	*	*
(4g 4B-	8ccc	.	.
.	8bb-J	.	.
=48	=48	=48	=48
4e- 4G)	8ggL	.	.
.	8ee-	.	.
4r	8cc	.	.
*Xped	*	*	*
.	8b-	.	.
4r	8g	.	.
.	8e-J	.	.
!!LO:PB:g=original
=49	=49	=49	=49
4r	8cL	.	.
.	8An	.	.
4r	8c	.	.
.	8B-	.	.
!	!LO:TX:t=cres. _:problem:dynamics with extention lines	!	!
!	!	!	!LO:HP:i:t=cres.
8cL	8cc	.	<
8B-J	8b-J	.	.
=50	=50	=50	=50
8GL<	8gL	.	.
8E-	8e-	.	.
8C	8c	.	.
8BB-	8B-	.	.
8G	8g	.	.
8E-J	8e-J	.	.
=51	=51	=51	=51
8CL<	8cL	.	.
8BB-	8B-	.	.
8GG	8G<	.	.
8G	8g	.	.
8E-	8e-	.	.
8CJ	8cJ	.	.
=52	=52	=52	=52
8BB-L<	8B-<L	.	.
8GG	8G<	.	.
8E-	8e-	.	.
8C	8c	.	.
8BB-	8B-<	.	.
8GGJ	8G<J	.	.
=53	=53	=53	=53
8EE-L<	8E-<L	.	.
8DD	8D<^<	.	.
8FF	8F<	.	.
8EE-	8E-<	.	.
8DD-X	8D-X<^<	.	.
8FFJ	8F<J	.	.
=54	=54	=54	=54
8EE-L<	8E-<L	.	.
8CC	8C<^<	.	.
8FF	8F<	.	.
8EE-	8E-<	.	.
8CC-X	8C-X<^<	.	.
8FFJ	8F<J	.	.
=55	=55	=55	=55
8EE-L<	8E-<L	.	.
8BBB-	8BB-<^<	.	.
8FF	8F<	.	.
8EE-	8E-<	.	.
8AAAn	8AAn<^<	.	.
8FFJ	8F<J	.	.
=56	=56	=56	=56
8EE-L<	8E-<L	.	.
8CC	8C<^<	.	.
8FF	8F<	.	.
8EE-	8E-<	.	.
8BBB-	8BB-<^<	.	[
8FFJ	8G<J	.	.
*ped	*	*	*
=57	=57	=57	=57
4EEE-\	4EE-<)	.	.
4rGGG	4rE<	.	.
4rGGG	4rE<	.	.
!!LO:LB:g=original
=58	=58	=58	=58
4g 4e- 4B- 4G	4eee-^< 4ee-	.	.
4r	4r	.	ff
8EE-L	8e-L 8E-<	.	.
8EE-J	8e-J 8E-<	.	.
=59	=59	=59	=59
[2.EE-\	[2.e-^< [>2.E-<	.	.
=60	=60	=60	=60
!	!LO:S:s=1:note:problem:note-level slur	!	!
2.EE-\]	(<2.e-] 2.E-<]	.	.
*Xped	*	*	*
.	.	.	.
*kcancel	*kcancel	*	*
=61||	=61||	=61||	=61||
*k[f#c#g#d#a#]	*k[f#c#g#d#a#]	*	*
*^	*	*	*
*	*	*^	*	*
!	!	!	!LO:TX:i:t=Legato	!	!LO:DY:rj
[2.F#	[>2.BB 2.BBB\	(>2.d#)	2ryy	.	p
.	.	.	[>4B<	.	.
*	*	*	*	*	*
*v	*v	*	*	*	*
=62	=62	=62	=62	=62
2.F#_< 2.BB_	[2.e [2.c#	4B<]	.	.
.	.	4A#<	.	.
.	.	4G#<	.	.
=63	=63	=63	=63	=63
2.F#_> 2.BB_>	2e] 2c#]	2A#<	.	.
.	4g# [4e	[>4A#<	.	.
=64	=64	=64	=64	=64
*	*	*^	*	*
2.F#] 2.BB]	[2.f#	2.e]	4A#<]	.	.
.	.	.	4B<	.	.
.	.	.	[>4c#<	.	.
*	*	*v	*v	*	*
=65	=65	=65	=65	=65
2.F# [>2.BB	2f#] 2d#)	2c#<]	.	.
.	(>4f# [4d#	(>[>4c#<	.	.
=66	=66	=66	=66	=66
*^	*	*	*	*
2.BB\_<	4F#)	2.g# 2.d#]	4c#<]	.	.
.	N[>2B	.	4B<	.	.
.	.	.	4A#<	.	.
*v	*v	*	*	*	*
=67	=67	=67	=67	=67
2BB]	2.b 2.d# [>2.B<N]	4A#<)	.	.
.	.	[>2G#<\	.	.
([<4BB	.	.	.	.
*	*v	*v	*	*
=68	=68	=68	=68
4BB\]	2.d# 2.B<]) [>2.G#<]	.	.
4AA#\	.	.	.
4GG#\)	.	.	.
!!LO:LB:g=original
=69	=69	=69	=69
*	*^	*	*
4GG#	(>2.e 2.B<	2G#<\]	.	.
[2CC#	.	.	.	.
.	.	(4G#<\	.	.
=70	=70	=70	=70	=70
2.CC#\]	2.g# 2.B<	4G#<\	.	.
.	.	4F#<\	.	.
.	.	4E<\	.	.
=71	=71	=71	=71	=71
4GG#\	2.c# 2.B	2E<)	.	.
[2CC#\	.	.	.	.
.	.	(>4E<	.	.
=72	=72	=72	=72	=72
2.CC#\]	2.e 2.B	4E<	.	.
.	.	4D#<	.	.
.	.	4C#<	.	.
=73	=73	=73	=73	=73
[2.E [>2.FF#	2.d#	2A#<)	.	.
.	.	(>[>4A#<	.	.
=74	=74	=74	=74	=74
2.E_ 2.FF#_>	[>2.c#)	4A#<]	.	.
.	.	4B<	.	.
.	.	4G#<	.	.
=75	=75	=75	=75	=75
2.E_ 2.FF#_>	(>2.c#]	2G#<)	.	.
.	.	(>[>4G#<	.	.
=76	=76	=76	=76	=76
2.E] 2.FF#]	2.c##X	4G#<]	.	.
.	.	4A#<	.	.
.	.	4F#<	.	.
=77	=77	=77	=77	=77
[2.BBB	2.d#	2F#< 2D#<)	.	.
.	.	(>4c#< 4An<	.	.
=78	=78	=78	=78	=78
2.BBB_	2.e	4c#< 4An<	.	.
.	.	4B< 4G#<	.	.
.	.	4A< 4F#<	.	.
=79	=79	=79	=79	=79
2.BBB_	[>2.B	2An< 2F#<	.	.
.	.	4G#< 4E<	.	.
!!LO:LB:g=original
=80	=80	=80	=80	=80
2.BBB]	2.B])	2G#<) 2E<	.	.
.	.	4r<A	.	.
=81	=81	=81	=81	=81
[2.BB\ [>2.BBB\	(>2.d#	4rA<	.	.
.	.	4rA<	.	.
.	.	(>4c#< 4An<	.	.
=82	=82	=82	=82	=82
2.BB_ 2.BBB_>	2.e	4c#< 4An<	.	.
.	.	4B< 4G#<	.	.
.	.	4A< 4F#<	.	.
=83	=83	=83	=83	=83
2.BB_ 2.BBB_>	[>2.B	2An< 2F#<	.	.
.	.	4G#< 4E<	.	.
=84	=84	=84	=84	=84
2.BB] 2.BBB]	2.B])	2G#< 2E<)	.	.
.	.	4rF<	.	.
=85	=85	=85	=85	=85
[2.BB\ [>2.BBB\	(>2.c#	4rA<	.	.
.	.	4rA<	.	.
.	.	(>[>4B< [>4G#<	.	.
=86	=86	=86	=86	=86
2.BB_ 2.BBB_>	2.d#	4B<] 4G#<]	.	.
.	.	4A#X< 4F#<	.	.
.	.	4G#< 4E<	.	.
=87	=87	=87	=87	=87
2.BB_ 2.BBB_>	[>2.B	2G#< 2E<	.	.
.	.	4F#< 4D#<	.	.
=88	=88	=88	=88	=88
2BB] 2BBB]	2.B])	2F#< 2D#<)	.	.
4CC#	.	N(>4C#<	.	.
*	*v	*v	*	*
=89	=89	=89	=89
2CC#\	2C#<	.	.
4DD#\	4D#</	.	.
=90	=90	=90	=90
2DD#\	2D#</	.	.
4BBB\	4BB</	.	.
!!LO:LB:g=original
=91	=91	=91	=91
2BBB\	2BB<	.	.
4FFF#\	4FF#<	.	.
=92	=92	=92	=92
2FFF#\	2FF#<	.	.
4GGG##X\	4GG##X<	.	.
=93	=93	=93	=93
2AA#\ 2AAA#\	4ra	.	.
.	4ra	.	.
!	!	!	!LO:DY:rj
[4GG#\ [>4GGG#\	(>8a#L 8A#	.	f
.	8a#J 8A#	.	.
=94	=94	=94	=94
4GG#\] 4GGG#\]	2.a#^ [>2.A#)	.	.
4FF#\ 4FFF#\	.	.	.
4DD#\ 4DDD#\	.	.	p
=95	=95	=95	=95
*	*^	*	*
2.CC##X\N) 2.CCC##X\	(>2.e#X	(>2A#</]	.	.
.	.	4G#</	.	.
=96	=96	=96	=96	=96
[2.CC#X\ 2.CCC#X\	2.f# 2.A#<	4G#<\	.	.
.	.	4F#<\	.	.
.	.	4C#<\	.	.
=97	=97	=97	=97	=97
[2.C#\ 2.CC#\_>	[>2.c#	(>2A#</ 2F#</)	.	.
.	.	4B</ 4G#</	.	.
=98	=98	=98	=98	=98
2.C#\] 2.CC#\]	2.c#_>)	4B</ 4G#</	.	.
.	.	4A#</ 4F#</	.	.
.	.	4G##X</ 4E#X</	.	.
=99	=99	=99	=99	=99
*^	*	*	*	*
(2E#X\	2.C# 2.FF#\	2.c#]	2.An</)	.	.
4F#\)	.	.	.	.	.
*v	*v	*	*	*	*
*	*v	*v	*	*
=100	=100	=100	=100
(4AAn\ 4AAAn\	2.rdd	.	.
4BB\ 4BBB\	.	.	.
4Dn\ 4DDn\	.	.	.
=101	=101	=101	=101
2C#\ 2CC#\	4ra	.	.
.	4ra	.	.
!	!	!	!LO:DY:rj
[4BB\ [>4BBB\	(>8cc#L 8c#	.	f
.	8cc#J 8c#	.	.
!!LO:LB:g=original
=102	=102	=102	=102
4BB\] 4BBB\]	2.cc#^< &(>2.c#)	.	.
4AAn\ 4AAAn\	.	.	.
4FF#\ 4FFF#\	.	.	p
=103	=103	=103	=103
*^	*	*	*
*	*	*^	*	*
*	*	*	*^	*	*
2ryy	[>2.FFn 2.FFFn)	([2.a-X	2d-X&)	[>2.A-X</	.	.
4Cn	.	.	4cn	.	.	.
*	*	*	*v	*v	*	*
=104	=104	=104	=104	=104	=104
4Cn	2.FFnX]	2.a-X_ 2.A-X<_	4cn	.	.
4D-X	.	.	4B	.	.
4Fn	.	.	4A-X	.	.
=105	=105	=105	=105	=105	=105
2Cn	[>2.FFn	2.a-X_ 2.A-X<_	2cn	.	.
4BB	.	.	4d-X	.	.
=106	=106	=106	=106	=106	=106
2BB	2.FFnX]	2.a-X_ 2.A-X<_	2d-X	.	.
4Cn	.	.	4cn	.	.
=107	=107	=107	=107	=107	=107
!	!	!LO:S:s=2:note:problem:note-level slur	!	!	!
[2.BB	2FFn	(>2.a-X] (>2.A-X<]	2d-X	.	<
.	4FF	.	4dn	.	.
=108	=108	=108	=108	=108	=108
!	!	!	!LO:S:s=2:note:problem:note-level slur	!	!
2.BB]	2FFn	4dn\	2.g#X/) [>2.G#X</)	.	.
.	.	4c#X\	.	.	.
.	4EE	[4d\	.	.	[[
*v	*v	*	*	*	*
=109	=109	=109	=109	=109
*	*	*^	*	*
[>\2.E [>\2.EE	2.g#	2dnX]	2G#</]	.	.
.	.	4f# 4d	4ryy	.	.
*	*	*v	*v	*	*
=110	=110	=110	=110	=110
2.E\_ 2.EE\_>	2.an	4f# 4dn	.	.
.	.	4e 4c#	.	.
.	.	4d 4B	.	.
=111	=111	=111	=111	=111
2.E\_ 2.EE\_>	[2.e	2dn 2B	.	.
.	.	4c# 4An	.	.
=112	=112	=112	=112	=112
2.E\] 2.EE\]	2.e])	2c# 2An	.	.
.	.	4rA	.	.
!!LO:PB:g=original
=113	=113	=113	=113	=113
[2.E\ [>2.EE\	(2.g#	4rA	.	.
.	.	4rA	.	.
.	.	(4f# 4dn	.	.
=114	=114	=114	=114	=114
2.E\_ 2.EE\_>	2.a#	4f# 4dn	.	.
.	.	4e 4c#	.	.
.	.	4d 4B	.	.
=115	=115	=115	=115	=115
2.E\_ 2.EE\_>	[2.e	2dn 2B	.	.
.	.	4c# 4An	.	.
=116	=116	=116	=116	=116
2.E\] 2.EE\]	2.e)]	[>2.c# [>2.An)	.	.
=117	=117	=117	=117	=117
[2.E\ [>2.EE\	(>2.f#	(>2c#</] 2AnX</]	.	.
.	.	4d#</ 4B</	.	.
=118	=118	=118	=118	=118
2.E\_ 2.EE\_>	2.g#	4d#</ 4B</	.	.
.	.	4c#</ 4An</	.	.
.	.	4B</ 4G#</	.	.
=119	=119	=119	=119	=119
2.E\_< 2.EE\_<	[>2.e	2B</ 2G#</	.	.
.	.	4c#</ 4An</	.	.
=120	=120	=120	=120	=120
2.E\_< 2.EE\_	2.e_>	4c#</ 4An</	.	.
.	.	4B</ 4G#</	.	.
.	.	4A</ 4F#</	.	.
=121	=121	=121	=121	=121
2.E\_< 2.EE\_	2.e_>	2An</ 2F#</	.	.
.	.	4B</ 4G#</	.	.
=122	=122	=122	=122	=122
2.E\] 2.EE\_>	2.e_>	4B</ 4G#</	.	.
.	.	4An</ 4F#</	.	.
.	.	4B</ 4G#</	.	.
=123	=123	=123	=123	=123
2.EE\_	2.e]	[>2.G#</ [2.E</	.	.
!!LO:LB:g=original
=124	=124	=124	=124	=124
2.EE\]	[2.c#^)	2.G#</] 2.E</])	.	.
=125	=125	=125	=125	=125
[2.F#\ [>2.FF#\	(2.d#	(<2c#]	.	.
.	.	[<4B/	.	.
=126	=126	=126	=126	=126
2.F#\_< 2.FF#\_	[2.e [>2.c#	4B</]	.	.
.	.	4A#</	.	.
.	.	4G#</	.	.
=127	=127	=127	=127	=127
2.F#\_< 2.FF#\_	2e] 2c#]	2A#</)	.	.
.	4g# [4e	[>4A#</	.	.
=128	=128	=128	=128	=128
*	*	*^	*	*
2.F#\] 2.FF#\]	[2.f#)	2.e]	4A#</]	.	.
.	.	.	4B</	.	.
.	.	.	[>4c#</	.	.
*	*	*v	*v	*	*
=129	=129	=129	=129	=129
[2.F# 2.BB	2f#] 2d#	2c#</]	.	.
.	(>4f# [>4d#	&(>[>4c#</	.	.
=130	=130	=130	=130	=130
*^	*	*	*	*
*	*	*	*^	*	*
[<2.BB\<	4F#]	2.g#	2.d#]	>4c#</]	.	.
!	!LO:TX:b:t=P:ligatura od 2B do 2.B< w następnym takcie:problem	!	!	!	!	!
.	N[>2B	.	.	4B</	.	.
.	.	.	.	4A#</	.	.
*v	*v	*	*	*	*	*
*	*	*v	*v	*	*
=131	=131	=131	=131	=131
2BB\]	2.b 2.d# [>2.B<N]	4A#<	.	.
.	.	[>2G#<\&)	.	.
([4BB\	.	.	.	.
*	*v	*v	*	*
=132	=132	=132	=132
4BB\]	2.d# 2.B<] [>2.G#<)]	.	.
4AA#\	.	.	.
4GG#\	.	.	.
=133	=133	=133	=133
*	*^	*	*
4GG#\	(>2.e 2.B<	(>2G#<\]	.	.
[2CC#\)	.	.	.	.
.	.	[>4G#<\	.	.
=134	=134	=134	=134	=134
2.CC#\]	2.g# 2.B<	4G#<\]	.	.
.	.	4F#<\	.	.
.	.	4E<\	.	.
!!LO:LB:g=original
=135	=135	=135	=135	=135
4GG#\	2.c# 2.B	2E</)	.	.
[2CC#\	.	.	.	.
.	.	(>4E</	.	.
=136	=136	=136	=136	=136
2.CC#\]	2.e 2.B	4E</	.	.
.	.	4D#</	.	.
.	.	4C#</	.	.
=137	=137	=137	=137	=137
[<2.E\ [<\2.FF#	2.d#	(>2A#</)	.	.
.	.	[>4A#</	.	.
=138	=138	=138	=138	=138
2.E\_< 2.FF#\_	[>2.c#)	4A#</]	.	.
.	.	4B</	.	.
.	.	4G#</	.	.
=139	=139	=139	=139	=139
2.E\_< 2.FF#\_	(>2.c#]	(>2G#</)	.	.
.	.	[>4G#</	.	.
=140	=140	=140	=140	=140
2.E\] 2.FF#\]	2.c##X	4G#</]	.	.
.	.	4A#</	.	.
.	.	[>4F#</	.	.
=141	=141	=141	=141	=141
[2.BBB\	2.d#	2F#</] 2D#</)	.	.
.	.	(>4c#</ 4An</	.	.
=142	=142	=142	=142	=142
2.BBB\_	2.e	4c#</ 4An</	.	.
.	.	4B</ 4G#</	.	.
.	.	4A</ 4F#</	.	.
=143	=143	=143	=143	=143
2.BBB\_	[>2.B	2An</ 2F#</	.	.
.	.	4G#</ 4E</	.	.
=144	=144	=144	=144	=144
2.BBB\]	2.B])	2G#</ 2E</)	.	.
.	.	4rA<	.	.
=145	=145	=145	=145	=145
[2.BB\ [>2.BBB\	(>2.d#	4rc<	.	.
.	.	4rc<	.	.
.	.	(>4c#</ 4An</	.	.
!!LO:LB:g=original
=146	=146	=146	=146	=146
2.BB\_ 2.BBB\_>	2.e	4c#</ 4An</	.	.
.	.	4B</ 4G#</	.	.
.	.	4A</ 4F#</	.	.
=147	=147	=147	=147	=147
2.BB\_ 2.BBB\_>	[>2.B	2An</ 2F#</	.	.
.	.	4G#</ 4E</	.	.
=148	=148	=148	=148	=148
2.BB\] 2.BBB\]	2.B])	2G#</) 2E</	.	.
.	.	4rF<	.	.
=149	=149	=149	=149	=149
[2.BB\ [>2.BBB\	(>2.c#	4rA<	.	.
.	.	4rA<	.	.
.	.	(>[>4B</ [>4G#</	.	.
=150	=150	=150	=150	=150
2.BB\_ 2.BBB\_>	2.d#	4B</] 4G#</]	.	.
.	.	4A#X</ 4F#</	.	.
.	.	4G#</ 4E</	.	.
=151	=151	=151	=151	=151
2.BB\_ 2.BBB\_>	[>2.B)	2G#</ 2E</	.	.
.	.	4F#</ 4D#</	.	.
=152	=152	=152	=152	=152
2BB\] 2BBB\]	2B]	2F#</ 2D#</)	.	.
4CC#\	4ryy	(>4C#</	.	.
*	*v	*v	*	*
=153	=153	=153	=153
2CC#<\	2C#<	.	.
4DD#<\	4D#</	.	.
=154	=154	=154	=154
!	!LO:TX:i:t=poco ritenuto	!	!
2DD#<\	2D#</	.	.
4BBB<\	4BB<	.	.
=155	=155	=155	=155
2BBB<\	2BB<	.	.
4GGG#<\	4GG#<	.	.
=156	=156	=156	=156
2GGG#<\	2GG#<	.	.
4AAAn<\	4AAn<)	.	.
!!LO:LB:g=original
=157||	=157||	=157||	=157||
*k[b-e-a-]	*k[b-e-a-]	*	*
!	!LO:TX:a:B:t=in tempo	!	!
*ped	*	*	*
4BB-'\ 4BBB-'\	4ra	.	.
!	!	!	!LO:DY:rj
4rC	(>8B-L	.	f
.	8g	.	.
(4A- [>4BB-	8d	.	.
*Xped	*	*	*
.	.	.	.
.	8fJ	.	.
=158	=158	=158	=158
*^	*	*	*
*ped	*	*	*	*
4G\	2BB-]	8e-L	.	.
.	.	8G<	.	.
4EE-\)	.	8B-<	.	.
.	.	8e-	.	.
4r	4reyy	8g	.	.
*Xped	*	*	*	*
.	.	.	.	.
.	.	8a-J	.	.
*v	*v	*	*	*
=159	=159	=159	=159
4rC	8anL>	.	.
.	8cc	.	.
4rC	8b-	.	.
.	8gg	.	.
(>4a-X> [>4B-	8dd	.	.
.	8ffJ	.	.
=160	=160	=160	=160
*^	*	*	*
*ped	*	*	*	*
4g>\	2B-])	8ee-L>	.	.
.	.	8g	.	.
4E-\	.	8b-	.	.
*Xped	*	*	*	*
.	.	8ee-	.	.
4r	4reyy	8gg	.	.
.	.	8aa-J	.	.
*v	*v	*	*	*
=161	=161	=161	=161
4rC	8aanL	.	.
.	8ccc	.	.
4rC	8bb-	.	.
.	8ggg	.	.
*clefG2	*	*	*
*ped	*	*	*
(4gg 4b-	8ddd	.	.
.	8fffJ	.	.
=162	=162	=162	=162
4ee- 4g)	8eee-L	.	.
.	8bb-	.	.
4ra	8gg	.	.
.	8ee-	.	.
*Xped	*	*	*
4ra	8b-	.	.
.	8gJ	.	.
*clefF4	*	*	*
=163	=163	=163	=163
!	!	!	!LO:HP:b=2
(2.C\	8e-L	.	>
.	8G<	.	.
.	8c	.	.
.	8e-	.	.
.	8g	.	.
.	8fJ	.	]
=164	=164	=164	=164
2FF\	8e-L	.	.
.	8A-<	.	.
.	8d	.	.
.	8c	.	.
8GG\)	8Bn	.	.
8rGG	8G<J	.	.
!!LO:LB:g=original
=165	=165	=165	=165
4rAA	8A-<L	.	.
.	8An<	.	.
4rAA	8B-<	.	.
.	8g	.	.
(>4A-X [>4BB-	8d	.	.
.	8fJ	.	.
=166	=166	=166	=166
*^	*	*	*
*ped	*	*	*	*
4G\	2BB-]	8e-L	.	.
.	.	8G<	.	.
4EE-\)	.	8B-<	.	.
*Xped	*	*	*	*
.	.	8e-	.	.
4r	4reyy	8g	.	.
.	.	8a-J	.	.
*v	*v	*	*	*
=167	=167	=167	=167
4rC	8anL>	.	.
.	8cc	.	.
4rC	8b-	.	.
.	8gg	.	.
(>4a-X> [>4B-	8dd	.	.
.	8ffJ	.	.
=168	=168	=168	=168
*^	*	*	*
*ped	*	*	*	*
4g>\	2B-]	8ee-L>	.	.
.	.	8g	.	.
4E-\)	.	8b-	.	.
.	.	8ee-	.	.
*Xped	*	*	*	*
4r	4reyy	8gg	.	.
.	.	8aa-J	.	.
*v	*v	*	*	*
=169	=169	=169	=169
4rC	8aanL	.	.
.	8ccc	.	.
4rC	8bb-	.	.
.	8bb-	.	.
*clefG2	*	*	*
*ped	*	*	*
(4gg 4b-	8cccc	.	.
.	8bbb-J	.	.
=170	=170	=170	=170
4ee- 4g)	8gggL	.	.
.	8eee-	.	.
4ra	8ccc	.	.
.	8bb-	.	.
4ra	8gg	.	.
*Xped	*	*	*
.	8ee-J	.	.
=171	=171	=171	=171
4ra	8ccL	.	.
.	8b-	.	.
4ra	8g	.	.
.	8c	.	>
*clefF4	*	*	*
([4A- 4BB-	8d	.	.
.	8gJ	.	.
=172	=172	=172	=172
*^	*	*	*
4A-\]	2E-	8fL	.	.
.	.	8e-	.	]
4G\)	.	8An<	.	.
.	.	8B-<	.	.
4rC	4rcyy	8Bn<	.	.
.	.	8c<J	.	.
*v	*v	*	*	*
!!LO:PB:g=original
=173	=173	=173	=173
4rC	8c#XL	.	.
.	8e-	.	.
4rC	8d	.	.
.	8b-	.	.
(>4cn [>4D	8f#X	.	.
.	8anJ	.	.
=174	=174	=174	=174
*^	*	*	*
*ped	*	*	*	*
4B-\	2D]	8gL	.	.
.	.	8d	.	.
4GG\)	.	8B-	.	.
.	.	8d	.	.
4r	4rgyy	8g	.	.
*Xped	*	*	*	*
.	.	.	.	.
.	.	8b-J	.	.
*v	*v	*	*	*
=175	=175	=175	=175
4rC	8cc#XL>	.	.
.	8ee-	.	.
4rC	8dd	.	.
.	8bb-	.	.
(4ccn> [>4d>	8ff#X	.	.
.	8aanJ	.	.
=176	=176	=176	=176
*^	*	*	*
*ped	*	*	*	*
4b->\	2d>]	8ggL>	.	.
.	.	8dd	.	.
4G\)	.	8b-	.	.
*Xped	*	*	*	*
.	.	8dd	.	.
4r	4rgyy	8gg	.	.
.	.	8bb-J	.	.
*v	*v	*	*	*
=177	=177	=177	=177
*	*8va	*	*
4rC	8ccc#XL	.	.
.	8ddd	.	.
4rC	8dddd	.	.
.	8aaan	.	.
*clefG2	*	*	*
*ped	*	*	*
(4bb- 4dd	8ccccn	.	.
.	8bbb-J	.	.
=178	=178	=178	=178
4gg 4b-)	8gggL	.	.
.	8ddd	.	.
*Xped	*	*	*
.	.	.	.
4ra	8bb-	.	.
*	*X8va	*	*
!	!LO:TX:a:t=loco	!	!
.	8gg	.	.
4ra	8dd	.	.
.	8anJ	.	.
=179	=179	=179	=179
4ra	8ccL	.	.
.	8b-	.	.
4ra	8g	.	.
.	8d	.	.
*clefF4	*	*	*
(4B- [>4C	8en	.	.
.	8a-J	.	.
!!LO:LB:g=original
=180	=180	=180	=180
*^	*	*	*
*ped	*	*	*	*
4A-\	2C]	8gL	.	.
.	.	8f	.	.
4FF\)	.	8c	.	.
.	.	8G<	.	.
*Xped	*	*	*	*
.	.	.	.	.
4rGG	4ryy	8A-<	.	.
.	.	8B-<J	.	.
*v	*v	*	*	*
=181	=181	=181	=181
4rC	8BnL	.	.
.	8d-X	.	.
4rC	8c	.	.
.	8a-	.	.
(4B-X [>4C	8en	.	.
.	8gJ	.	.
=182	=182	=182	=182
*^	*	*	*
*ped	*	*	*	*
4A-\	2C]	8fL	.	.
.	.	8c	.	.
4FF\)	.	8A-<	.	.
.	.	8c	.	.
*Xped	*	*	*	*
.	.	.	.	.
4r	4r	8f	.	.
.	.	8a-J	.	.
*v	*v	*	*	*
=183	=183	=183	=183
4rC	8bnL>	.	.
.	8dd-X	.	.
4rC	8cc	.	.
.	8aa-	.	.
(4b-X> [>4c>	8een	.	.
.	8ggJ	.	.
=184	=184	=184	=184
*^	*	*	*
*ped	*	*	*	*
4a->\	2c>]	8ffL>	.	.
.	.	8cc	.	.
4F\)	.	8a-	.	.
*Xped	*	*	*	*
.	.	8cc	.	.
4r	4rbyy	8ff	.	.
.	.	8aa-J	.	.
*v	*v	*	*	*
=185	=185	=185	=185
*	*8va	*	*
2.rF	8bbnL	.	.
.	8ccc	.	.
.	8cccc	.	.
.	8ggg	.	.
.	8bbb-X	.	.
.	8aaa-J	.	.
*	*X8va	*	*
*clefG2	*	*	*
=186	=186	=186	=186
*ped	*	*	*
!	!LO:TX:a:t=loco	!	!
2aa- 2dd 2cc	8fffL	.	.
.	8ddd	.	.
.	8ccc	.	.
.	8aa-	.	.
4ra	8ff	.	.
.	8ddJ	.	.
*clefF4	*	*	*
!!LO:LB:g=original
=187	=187	=187	=187
2.rG	8ccL	.	.
.	8a-	.	.
.	8f	.	.
.	8d	.	.
*Xped	*	*	*
.	.	.	.
.	8a-	.	.
.	8cJ	.	.
=188	=188	=188	=188
2D\ 2GG\	8BnL	.	.
.	8G<	.	.
.	8A-<	.	.
.	8G<	.	.
4rBB	8g	.	.
.	8G<J	.	.
=189	=189	=189	=189
4rBB	8A-<L	.	.
.	8An<	.	.
4rBB	8B-<	.	.
.	8g	.	.
(4A-X [>4BB-	8d	.	.
.	8fJ	.	.
=190	=190	=190	=190
*^	*	*	*
*ped	*	*	*	*
4G\	2BB-]	8e-L	.	.
.	.	8G<	.	.
4EE-\)	.	8B-<	.	.
.	.	8e-	.	.
*Xped	*	*	*	*
.	.	.	.	.
4r	4rAyy	8g	.	.
.	.	8a-J	.	.
*v	*v	*	*	*
=191	=191	=191	=191
4rC	8anL>	.	.
.	8cc	.	.
4rC	8b-	.	.
.	8gg	.	.
(4a-X> [<4B->	8dd	.	.
.	8ffJ	.	.
=192	=192	=192	=192
*^	*	*	*
*ped	*	*	*	*
4g>\	2B->]	8ee-L>	.	.
.	.	8g	.	.
4E-\)	.	8b-	.	.
*Xped	*	*	*	*
.	.	8ee-	.	.
4rC	4rgyy	8gg	.	.
.	.	8aa-J	.	.
*v	*v	*	*	*
=193	=193	=193	=193
4rC	8aanL	.	.
.	8ccc	.	.
4rC	8bb-	.	.
.	8ggg	.	.
*clefG2	*	*	*
*ped	*	*	*
(4gg 4b-	8ddd	.	.
.	8fffJ	.	.
=194	=194	=194	=194
4ee- 4g)	8eee-L	.	.
.	8bb-	.	.
4ra	8gg	.	.
.	8ee-	.	.
*Xped	*	*	*
4ra	8b-	.	.
.	8gJ	.	.
!LO:CL:ed	!	!	!
*clefF4	*	*	*
!!LO:LB:g=original
=195	=195	=195	=195
(2.C\	8e-L	.	.
!	!	!	!LO:HP:b=2
.	.	.	>
.	8G<	.	.
.	8c	.	.
.	8e-	.	.
.	8g	.	.
.	8fJ	.	]]
=196	=196	=196	=196
2FF\	8e-L	.	.
.	8A-<	.	.
.	8d	.	.
.	8c	.	.
8GG\)	8Bn	.	.
8rFF	8G<J	.	.
=197	=197	=197	=197
4rBB	8A-<L	.	.
.	8An<	.	.
4rBB	8B-<	.	.
.	8g	.	.
(4A-X [>4BB-	8d	.	.
.	8fJ	.	.
=198	=198	=198	=198
*^	*	*	*
*ped	*	*	*	*
4G\	2BB-]	8e-L	.	.
.	.	8G<	.	.
4EE-\)	.	8B-<	.	.
.	.	8e-	.	.
4r	4rAyy	8g	.	.
*Xped	*	*	*	*
.	.	8a-J	.	.
*v	*v	*	*	*
=199	=199	=199	=199
4rC	8anL>	.	.
.	8cc	.	.
4rC	8b-	.	.
.	8gg	.	.
(4a-X> [>4B->	8dd	.	.
.	8ffJ	.	.
=200	=200	=200	=200
*^	*	*	*
*ped	*	*	*	*
4g>\	2B->]	8ee-L>	.	.
.	.	8g	.	.
4E-\)	.	8b-	.	.
.	.	8ee-	.	.
*Xped	*	*	*	*
4rC	4rgyy	8gg	.	.
.	.	8aa-J	.	.
*v	*v	*	*	*
=201	=201	=201	=201
4rC	8aanL	.	.
.	8ccc	.	.
4rC	8bb-	.	.
.	8bb-	.	.
*clefG2	*	*	*
*ped	*	*	*
(4gg 4b-	8cccc	.	.
.	8bbb-J	.	.
!!LO:LB:g=original
=202	=202	=202	=202
4ee- 4g)	8gggL	.	.
.	8eee-	.	.
4ra	8ccc	.	.
.	8bb-	.	.
*Xped	*	*	*
4ra	8gg	.	.
.	8ee-J	.	.
=203	=203	=203	=203
4ra	8ccL	.	.
.	8an	.	.
4ra	8cc	.	.
.	8b-	.	.
*clefF4	*	*	*
*ped	*	*	*
(4g 4B-	8ccc	.	.
.	8bb-J	.	.
=204	=204	=204	=204
4e- 4G)	8ggL	.	.
.	8ee-	.	.
4rC	8cc	.	.
.	8b-	.	.
*Xped	*	*	*
4rC	8g	.	.
.	8e-J	.	.
=205	=205	=205	=205
4rC	8cL	.	.
.	8An	.	.
4rC	8c	.	.
.	8B-	.	.
8cL	8cc	.	<
8B-J	8b-J	.	.
=206	=206	=206	=206
8GL	8gL	.	.
8E-	8e-	.	.
8C	8c	.	.
8BB-	8B-	.	.
8G	8g	.	.
8E-J	8e-J	.	.
=207	=207	=207	=207
8CL<	8cL	.	.
8BB-	8B-	.	.
8GG	8G<	.	.
8G	8g	.	.
8E-	8e-	.	.
8CJ	8cJ	.	.
=208	=208	=208	=208
8BB-L<	8B-<L	.	.
8GG	8G<	.	.
8E-	8e-	.	.
8C	8c	.	.
8BB-	8B-<	.	.
8GGJ	8G<J	.	.
!!LO:LB:g=original
=209	=209	=209	=209
8EE-L<	8E-<L	.	.
8DD	8D<^<	.	.
8FF	8F<	.	.
8EE-	8E-<	.	.
8DD-X	8D-X<^<	.	.
8FFJ	8F<J	.	.
=210	=210	=210	=210
8EE-L<	8E-<L	.	.
8CC	8C<^<	.	.
8FF	8F<	.	.
8EE-	8E-<	.	.
8CC-X	8C-<X^<	.	.
8FFJ	8F<J	.	.
=211	=211	=211	=211
8EE-L<	8E-<L	.	.
8BBB-	8BB-<^<	.	.
8FF	8F<	.	.
8EE-	8E-<	.	.
8AAAn	8AAn<^<	.	.
8FFJ	8F<J	.	.
=212	=212	=212	=212
8EE-L<	8E-<L	.	.
8CC	8C<^<	.	.
8FF	8F<	.	.
8EE-	8E-<	.	.
8BBB-	8BB-<^<	.	.
8FFJ	8G<J	.	.
*ped	*	*	*
=213	=213	=213	=213
4EEE-\	4EE-<)	.	.
4rGGG	4rE<	.	.
4rGGG	4rE<	.	.
=214	=214	=214	=214
4g 4e- 4B- 4G	4eee-^< 4ee-	.	.
4r	4ra	.	.
8EE-L< 8EEE-	8e-L 8E-<	.	.
8EE-J 8EEE-	8e-J 8E-<	.	.
=215	=215	=215	=215
[2.EE-\ [2.EEE-\	[2.e-^< [2.E-<	.	.
=216	=216	=216	=216
4EE-\] 4EEE-\]	4e-] 4E-<]	.	.
4r	4ra	.	.
4r	4ra	.	.
==	==	==	==
*-	*-	*-	*-
!!!system-decoration: {(s1,s2)}
!!title: @{OTL}; @{OPS} @{ONM} publisher: @{PPR}
!!!RDF**kern: > = above
!!!RDF**kern: < = below
!!!RDF**kern: N = linked
!!!RDF**dynam: > = "dim."
!!!RDF**kern: i = editorial accidental
!!!ENC: Emilia Ziętek
!!!END: 2019-10-01
!!!EED: Jędrzej Mróz
!!!EST: revision finished 2019-10-10
!!!rism-genre: Sonata
!!!rism-key: B minor
!!!rism-opus: op. 58
!!!rism-title: Sonata in B minor op. 58
!!!rism-permalink: https://opac.rism.info/search?id=1001027079&View=rism
